packages/ui-icons/svg/Solid/download.svg

<svg viewBox="0 0 1920 1920" version="1.1" xmlns="http://www.w3.org/2000/svg">
    <path d="M1764.09785,1355.41151 L1920,1511.31366 L1556.92661,1874.38704 L363.073389,1874.38704 L0,1511.31366 L155.902148,1355.41151 L454.365453,1653.87481 L1465.63455,1653.87481 L1764.09785,1355.41151 Z M1070.3333,-7.10542736e-15 L1070.3333,949.966693 L1320.83519,699.354542 L1476.73734,855.25669 L957.761801,1374.23223 L438.786264,855.25669 L594.688412,699.354542 L849.710807,954.376938 L849.710807,-7.10542736e-15 L1070.3333,-7.10542736e-15 Z" stroke="none" stroke-width="1" fill-rule="evenodd"/>
</svg>

<svg viewBox="0 0 1920 1920" xmlns="http://www.w3.org/2000/svg">
    <path d="M1764.098 1355.412 1920 1511.314l-363.073 363.073H363.073L0 1511.314l155.902-155.902 298.463 298.463h1011.27l298.463-298.463ZM1070.333 0v949.967l250.502-250.612 155.902 155.902-518.975 518.975-518.976-518.975 155.902-155.902 255.023 255.022V0h220.622Z" fill-rule="evenodd"/>
</svg>
